X: 14
T: Morrison's
R: jig
M: 6/8
L: 1/8
K: Edor
|:"Em" E3 B3|EBE "D"AFD|"Em"EDE B2c|"G"dcB "D"AFD|
  "Em" E3 B3|EBE "D"AFD|"C"G3 FGA |1 "D" dAG FED :|2 "D" dAG FGA ||
  "Em" Bee fee|aee fed|Bee fee|"D"a2g fed|
  "Em" Bee fee|aee fef|"C"gfe d2A|"D"BAG FGA|
  "Em" Bee fee|aee fee|Bee fee|"D"faf def|
  "C"g3 gfe|"G"def g2d|"D"edc d2A|"C"BAG "D"FED |]


